X:202
T:Polska efter C A Lindblom
R:sl\"angpolska
A:\"Osterg\"otland
B:SvL \"Ogl 43
Z:id:hn-sp-202
M:3/4
L:1/16
K:F
F4 FGAB cdeg | f4 c2dc B2A2 | c2dc B2cB A2F2 | G2A2 B2d2 cBAG |
F4 FGAB cdeg | f4 c2dc B2A2 | c2dc B2cB A2c2 | c2eg bgeg f4 :|
|: a2f2 f2f2 f2ga | b2g2 g4 g4 | a4 fgfe f2a2 | gagf efge c4 |
a2f2 f2f2 f2ga | b2g2 g4 g4 | a4 fgfe f2a2 | gagf efge f4 :|

